X: 21516
T: Kid On The Mountain, The
R: slip jig
M: 9/8
K: Eminor
|:EDE FEF G2 F|EDE BcA BGE|EDE FEF G2 G/A/|BAG FAG FED:|
|:BGB AFA G2 D|GAB dge dBG|BGB AFA G2 G/A/|BAG FAG FED:|
|:gfg eBe e2 f|gfg efg afd|gfg eBe e2 g/a/|bag fag fed:|
|:eBB e2f gfg|eBB efg afd|eBB e2f g2 g/a/|bag fag fed:|
|:edB dBA G2D|GAB dge dBd|edB dBA G2 G/A/|BAG FAG FED:|

